X:198
%%etbk:tnset id:61,pos:2,rep:3x,ant:
%%etbk:wsite http://www.thesession.org/tunes/display/483
%%etbk:color #ffe6e6
%%etbk:pldat 2015-01-07T17:46,2014-12-16T17:33,2014-12-07T11:20,2014-11-22T15:58,2014-11-17T19:14,2014-02-07T15:10,2013-05-09T15:34
T: Reel Beatrice
S: Trad. Arr. S. Shannon
Z: Piano Box Version by Martin Fleischmann
H: Created 2013-02-19 /  Last Modified 2014-12-07
M: 4/4
L: 1/8
R: reel
K: Amin
|:!2!CC !1!A,C !4!E2!1!C!2!E | !5!A!1!EE!3!A A!1!E!3!A!4!B | !3!c2!1!A!3!c !5!e2!1!c!2!e | !5!a!1!ee!3!a !1!e4 |
| !4!c'ba!1!g !3!fe!1!d!3!c | !2!B!4!ddB !4!d3!2!^d | !3!e2!2!ef e!1!d!3!cB | !1!A4 z4,:|
|: !4!A2!2!FA BAFA | !2!F!1!E!2!^D!1!E !4!A!1!EE2 | !2!E3E FEE!1!D | !3!CDCB, !3!C!1!A,A,2 |
!4!A2!2!FA BAFA | !2!F!1!E!2!^D!1!E !4!A!1!EE2 | !2!E3F E!1!D!3!CB, |1 !1!A,2 z2 A,4:|2 A,2 z2 !2!G4 |
:!4!c!2!G (3GGG !1!E!2!G!4!c!5!e | cG (3GGG EGc!5!e |!4!d!2!B (3BBB GBdB | !1!cc'ba gfed|
|!4!cG (3GGG EGce|cG (3GGG EGce|dB (3BBB GBdB|1 cBcd c2 GB:|2 cBcd c2 A,B,||
|:"var"!5!c3!2!G !1!E!2!G!5!cG | !5!c!2!G!1!G!2!G !1!EGc!2!G | !4!B2!2!GG !1!D!2!G!4!B!2!G | !4!c2BA !1!G!3!FE!1!D |
!3!C3!1!G, !2!G,!1!G,!3!C!5!E | !3!C!1!G, !3!(3G,!2!G,!1!G, !1!G,2!3!C!5!E | !4!D2!2!B,B, !1!G,!2!B,!4!D!2!B, |1,2 !3!CB,DB, !3!C2 z2:|3 !3!C2!2!B,2!1!A,4||


